korla/status/symbolic/network-acquiring-symbolic.svg

<svg style="clip-rule:evenodd;fill-rule:evenodd;stroke-linejoin:round;stroke-miterlimit:2" version="1.1" viewBox="0 0 16 16" xmlns="http://www.w3.org/2000/svg">
 <g transform="matrix(-1,0,0,-1,16,15.3797)">
  <path d="m1 11 5 4v-2.298h3v-1.702h-8z" style="fill-opacity:.3;fill-rule:nonzero;fill:rgb(223,223,223)"/>
 </g>
 <path d="m1 11 5 4v-2.298h3v-1.702h-8z" style="fill-opacity:.3;fill-rule:nonzero;fill:rgb(223,223,223)"/>
 <path d="m5 8c0 1.097-0.903 2-2 2s-2-0.903-2-2 0.903-2 2-2 2 0.903 2 2z" style="fill-rule:nonzero;fill:rgb(223,223,223)"/>
 <path d="m10 8c0 1.097-0.903 2-2 2s-2-0.903-2-2 0.903-2 2-2 2 0.903 2 2z" style="fill-rule:nonzero;fill:rgb(223,223,223)"/>
 <path d="m15 8c0 1.097-0.903 2-2 2s-2-0.903-2-2 0.903-2 2-2 2 0.903 2 2z" style="fill-rule:nonzero;fill:rgb(223,223,223)"/>
</svg>

<svg xmlns="http://www.w3.org/2000/svg" width="16" height="16" version="1.1">
 <path style="fill:#dfdfdf;opacity:0.3" d="M 10 0 L 10 2 L 7 2 L 7 5 L 14.889 5 L 15.5 4.5 L 10 0 z"/>
 <path style="opacity:0.3;fill:#dfdfdf" d="M 1,11 6,15 V 13 H 9 V 11 Z"/>
 <path style="fill:#dfdfdf" d="M 5,8 A 2,2 0 0 1 3,10 2,2 0 0 1 1,8 2,2 0 0 1 3,6 2,2 0 0 1 5,8 Z"/>
 <path style="fill:#dfdfdf" d="M 10,8 A 2,2 0 0 1 8,10 2,2 0 0 1 6,8 2,2 0 0 1 8,6 2,2 0 0 1 10,8 Z"/>
 <path style="fill:#dfdfdf" d="M 15,8 A 2,2 0 0 1 13,10 2,2 0 0 1 11,8 2,2 0 0 1 13,6 2,2 0 0 1 15,8 Z"/>
</svg>
